icon/cg/arrows-v.svg

<svg viewBox="0 0 24 24" fill="none" xmlns="http://www.w3.org/2000/svg" height="1em" width="1em">
  <path d="M7.75739 5.04077L9.1716 6.45498L11.0001 4.62652V10H13.0001V4.62661L14.8284 6.45498L16.2426 5.04077L12 0.798126L7.75739 5.04077Z" fill="currentColor"/>
  <path d="M16.2426 18.9593L14.8284 17.545L13.0001 19.3734V14H11.0001V19.3735L9.1716 17.545L7.75739 18.9593L12 23.2019L16.2426 18.9593Z" fill="currentColor"/>
</svg>

<svg width="24" height="24" fill="none" xmlns="http://www.w3.org/2000/svg"><path d="m7.757 5.04 1.415 1.415L11 4.627V10h2V4.627l1.828 1.828 1.415-1.414L12 .798 7.757 5.041ZM16.243 18.96l-1.415-1.415L13 19.373V14h-2v5.373l-1.828-1.828-1.415 1.414L12 23.202l4.243-4.243Z" fill="currentColor"/></svg>
